!!!!SEGMENT: pl-kk--kk-i-1--013-002_borek-krzysztof--missa-te-deum-laudamus-et-in-terra.krn
!!!cenid: 15xx:697
!!!COM: Borek, Krzysztof
!!!COM-rismID:
!!!CDT: 1520-1573
!!!CNT: Polish
!!!OPR: [Missa] Te Deum laudamus
!!!OTL: Et in terra
!!!OMV: 002
!!!PDT:
!!!AGN: Sacred; Mass
!!!SMS-siglum: PL-Kk
!!!SMS-shelfmark: Kk.I.1
!!!SMS-shelfwork: 013-002 M
!!!SMS-variant:
!!!SMS-altvar:
!!!NIFC-rismSourceID: 300257967
!!!NIFC-islandoraID: pl-kk:1
!!!URL-pdf-islandora: https://repozytorium.nifc.pl/islandora/object/pl-kk%3A1/datastream/PDF/view
!!!URL-scan: https://polish.musicsources.pl/pl/lokalizacje/galeria/rekopisy/5736 @EN{Scan on Polish Music Herritage in Open Access Website} @PL{Skany w portalu Dziedzictwo Muzyki Polskiej w otwartym dostępie}
!!!ONB-nifc: UWAGA: Cantus (s. 75r-81v, skan 0077-0084), Altus (s. 73r-78v, skan 0265-0271), Tenor (s. 71r-76r, skan 0460-0465), Bassus (s. 70v-76r, skan 0632-0637). Części Mszy: 1. Kyrie, 2. Et in terra, 3. Patrem, 4. Sanctus, 5. Agnus Dei
!!!AIN: 1 alto 1 bass 2 tenor
!!!key: a
**kern	**text	**kern	**text	**kern	**text	**kern	**text
*part4	*part4	*part3	*part3	*part2	*part2	*part1	*part1
*staff4	*staff4	*staff3	*staff3	*staff2	*staff2	*staff1	*staff1
*I"BASSVS	*	*I"TENOR	*	*I"ALTVS	*	*I"CANTVS	*
*I'B	*	*I'T	*	*I'A	*	*I'S	*
*ICvox	*	*ICvox	*	*ICvox	*	*ICvox	*
*Ibass	*	*Itenor	*	*Itenor	*	*Ialto	*
*mI"Basso	*	*mI"Tenore II	*	*mI"Tenore I	*	*mI"Alto	*
*mI'B	*	*mI'T 2	*	*mI'T 1	*	*mI'A	*
*clefF4	*	*clefC4	*	*clefC4	*	*clefC3	*
*	*	*mclefGv2	*	*mclefGv2	*	*mclefG2	*
*k[]	*	*k[]	*	*k[]	*	*k[]	*
*a:	*	*a:	*	*a:	*	*a:	*
*M2/1	*	*M2/1	*	*M2/1	*	*M2/1	*
*met(c|)	*	*met(c|)	*	*met(c|)	*	*met(c|)	*
*mmet(c|)	*	*mmet(c|)	*	*mmet(c|)	*	*mmet(c|)	*
=1	=1	=1	=1	=1	=1	=1	=1
!LO:TX:t=P:sześciolinia:problem	!	!LO:TX:t=P:sześciolinia:problem	!	!LO:TX:t=P:sześciolinia:problem	!	!LO:TX:t=P:sześciolinia:problem	!
0r	.	0r	.	1r	.	2B/	Et
.	.	.	.	.	.	2B/	in
!	!	!	!	!	!	!	!LO:MO:mod=ter-
.	.	.	.	2B/	Et	2d\	t(er)-
.	.	.	.	2B/	in	2d\	-ra
=2	=2	=2	=2	=2	=2	=2	=2
!	!	!	!	!	!LO:MO:mod=ter-	!	!
0r	.	0r	.	2c/	t(er)-	2e\	pax
.	.	.	.	2B/	-ra	2e\	ho-
!	!	!	!	!	!	!	!LO:MO:mod=-mi-
.	.	.	.	1B	pax	2e\	-(mi-
!	!	!	!	!	!	!	!LO:MO:mod=-ni-
.	.	.	.	.	.	2e\	-n)i-
=3	=3	=3	=3	=3	=3	=3	=3
2AA/	Et	0r	.	1c	ho-	1.e	-bus
2AA/	in	.	.	.	.	.	.
!	!LO:MO:mod=ter-	!	!	!	!LO:MO:mod=-mi-	!	!
2C/	t(er)-	.	.	2c/	-(mi-	.	.
!	!	!	!	!	!LO:MO:mod=-ni-	!	!
2C/	-ra	.	.	2c/	-n)i-	2e\	bo-
=4	=4	=4	=4	=4	=4	=4	=4
!	!	!	!	!	!	!	!LO:MO:mod=-nae
2D/	pax	0r	.	2A/	-bus	1f	-n(ae)
*	*	*	*	*	*ij	*	*
2D/	ho-	.	.	2d\	ho-	.	.
!	!LO:MO:mod=-mi-	!	!	!	!LO:MO:mod=-mi-	!	!
2D/	-(mi-	.	.	2f\	-(mi-	2.d\	vo-
!	!LO:MO:mod=-ni-	!	!	!	!LO:MO:mod=-ni-	!	!
2D/	-n)i-	.	.	2.f\	-n)i-	.	.
.	.	.	.	.	.	4e\	.
=5	=5	=5	=5	=5	=5	=5	=5
1D	-bus	0r	.	.	.	1f	-lun-
.	.	.	.	4e\	.	.	.
.	.	.	.	1d	.	.	.
*	*	*	*	*	*	*custos:d	*
2r	.	.	.	.	.	1e	-ta-
2C/	bo-	.	.	4c/	.	.	.
.	.	.	.	4B/	.	.	.
!	!	!	!	!	!	!LO:LB:g=original	!
=6	=6	=6	=6	=6	=6	=6	=6
!	!LO:MO:mod=-nae	!	!	!	!	!	!
2D/	-n(ae)	0r	.	2A/	-bus	2d\	-tis
*	*	*	*	*	*Xij	*	*
!	!LO:MO:mod=vo-	!	!	!	!	!	!
2E\	vol:	.	.	2G/	bo-	2B/	lau-
*	*	*	*	*custos:B	*	*	*
!	!LO:MO:null:mod=-[lun-	!	!	!	!LO:MO:mod=-nae	!	!
1F	.	.	.	1A	-n(ae)	2d\	-da-
.	.	.	.	.	.	2d\	-mus
!	!	!	!	!LO:LB:g=original	!	!	!
=7	=7	=7	=7	=7	=7	=7	=7
!	!LO:MO:null:mod=-ta-	!	!	!	!	!	!
0E	.	1E	Per	2B/	vo-	2e\	te
!	!	!	!	!	!LO:MO:mod=-lun-	!	!
.	.	.	.	2c/	-lu(n)-	2e\	be-
*	*	*lig	*	*	*	*	*
.	.	1G	ſin-	2.B/	-ta-	2e\	-ne-
.	.	.	.	.	.	2g\	-di-
.	.	.	.	4c\	.	.	.
=8	=8	=8	=8	=8	=8	=8	=8
!	!LO:MO:null:mod=-tis]	!	!	!	!LO:MO:null:mod=.	!	!
1D	.	1A	.	2d\	-tis	2.f\	-ci-
!	!	!	!	!	!LO:MO:null:mod=-tis	!	!
.	.	.	.	2A/	.	.	.
.	.	.	.	.	.	4f\	-mus
*	*	*Xlig	*	*	*	*	*
2r	.	2A/	-gu-	1r	.	1e	te
*custos:D	*	*	*	*	*	*	*
2AA/	lau-	2A/	-los	.	.	.	.
!LO:LB:g=original	!	!	!	!	!	!	!
=9	=9	=9	=9	=9	=9	=9	=9
*	*	*lig	*	*	*	*	*ij
2D/	-da-	1A	di-	2r	.	2r	.
2D/	-mus	.	.	2d\	lau-	2f\	be-
2C/	te	1c	.	2e\	-da-	1g	-ne
!	!LO:MO:mod=be-	!	!	!	!LO:MO:mod=-mus	!	!
2C/	b(e)-	.	.	2e\	-(mus)	.	.
*	*	*Xlig	*	*	*	*	*
=10	=10	=10	=10	=10	=10	=10	=10
!	!LO:MO:mod=-ne-	!	!	!	!	!	!
2.F\	-n(e)-	1A	-es	2f\	te	2.a\	di
.	.	.	.	4F/	be-	.	.
4E\	-di-	.	.	4G/	.	4g\	.
2D/	-ci-	1A	be-	4A/	-ne-	2f\	ci-
.	.	.	.	4B/	.	.	.
!	!LO:MO:mod=-mus	!	!	!	!	!	!
2C/	-(mus)	.	.	2c/	-di-	2e\	-mus
=11	=11	=11	=11	=11	=11	=11	=11
*	*	*lig	*	*	*	*	*
1D	te	1A	-ne-	2A/	-ci-	1d	te
.	.	.	.	1d	-mus	.	.
*	*ij	*	*	*	*	*	*Xij
!	!	!	!	!	!	!	!LO:MO:mod=a-
2r	.	1G	.	.	.	1g	A-
!	!LO:MO:mod=be-	!	!	!	!	!	!
2E\	b(e)-	.	.	2c/	.	.	.
*	*	*Xlig	*	*	*	*	*
=12	=12	=12	=12	=12	=12	=12	=12
!	!LO:MO:mod=-ne-	!	!	!	!	!	!
2F\	-n(e)-	1A	-di-	1d	te	2f\	-do-
*	*	*	*	*	*	*custos:g	*
2D/	-di-	.	.	.	.	2f\	-ra-
!	!	!	!	!	!LO:MO:mod=a-	!LO:LB:g=original	!
2G\	-ci-	1B	-ci-	1d	A-	1g	-mus
!	!LO:MO:mod=-mus	!	!	!	!	!	!
2G\	-(mus)	.	.	.	.	.	.
=13	=13	=13	=13	=13	=13	=13	=13
*	*	*custos:A	*	*	*	*	*
!	!	!	!LO:MO:mod=-mus	!	!	!	!
2C/	te	0G	-mus.	2c/	-do-	2e\	te
*	*Xij	*	*	*	*	*	*ij
1E	a-	.	.	2B/	-ra-	1g	a-
*	*	*	*	*custos:c	*	*	*
.	.	.	.	1e	-mus	.	.
2E\	-do-	.	.	.	.	2g\	-do-
!	!	!LO:LB:g=original	!	!LO:LB:g=original	!	!	!
=14	=14	=14	=14	=14	=14	=14	=14
1.F	-ra-	2A/	te	1c	te	1.f	-ra-
!	!	!	!LO:MO:mod=a-	!	!	!	!
.	.	1A	A-	.	.	.	.
.	.	.	.	2r	.	.	.
2D/	-mus	2A/	-do-	2.f\	glo-	2f\	-mus
=15	=15	=15	=15	=15	=15	=15	=15
1D	te	2A/	-ra-	.	.	2d\	te
.	.	.	.	4e\	.	.	.
*	*	*	*	*	*	*	*Xij
.	.	2A/	-mus	1d	-ri-	1f	glo-
2r	.	2A/	te	.	.	.	.
2AA/	glo-	2A/	glo-	2c/	-fi-	2e\	-ri-
=16	=16	=16	=16	=16	=16	=16	=16
2D/	-ri-	2A/	-ri-	2f\	-ca-	2d\	-fi-
*custos:D	*	*	*	*	*	*	*
2C/	-fi-	2A/	-fi-	2e\	.	2e\	-ca-
!LO:LB:g=original	!	!	!	!	!	!	!
2D/	-ca-	2A/	-ca-	1.d	-mus	1f	-mus
2D/	-mus	2A/	-mus	.	.	.	.
=17	=17	=17	=17	=17	=17	=17	=17
*	*	*custos:A	*	*	*	*custos:e	*
!	!	!	!LO:MO:mod=te	!	!	!	!
0AA;	te	0A;<	te.	.	.	0e;<	te
.	.	.	.	4c/	.	.	.
!	!	!	!	!	!LO:MO:null:mod=.	!	!
.	.	.	.	4B/	te	.	.
!	!	!	!	!LO:N:vis=0	!LO:MO:null:mod=te	!	!
.	.	.	.	1c;	.	.	.
!	!	!LO:LB:g=original	!	!	!	!LO:LB:g=original	!
=18||	=18||	=18||	=18||	=18||	=18||	=18||	=18||
2.AA/	Gra-	2.A/	Gra-	2.c/	Gra-	2.e\	Gra-
!	!	!	!	!	!	!	!LO:MO:mod=-ti-
4AA/	-ti-	4A/	-ti-	4c/	-ti-	4e\	-(ti-
!	!	!	!	!	!	!	!LO:MO:mod=-as
2E\	-as	2G/	-as	2B/	-as	2g\	-a)s
2C/	a-	2E/	a-	2e\	a-	2g\	a-
=19	=19	=19	=19	=19	=19	=19	=19
2D/	-gi-	2F/	-gi-	2d\	-gi-	2f\	-gi-
2E\	-mus-	2G/	-mus	2B/	-m(us)	2e\	-mus
*	*	*	*	*custos:B	*	*	*
2AA/	.	1A	ti-	1c	ti	0e	ti-
2.A\	-ti-	.	.	.	.	.	.
!	!	!	!	!LO:LB:g=original	!	!	!
=20	=20	=20	=20	=20	=20	=20	=20
.	.	1E	-bi	1B	bi	.	.
8G\L	.	.	.	.	.	.	.
8F\J	.	.	.	.	.	.	.
!	!LO:MO:null:mod=.	!	!	!	!	!	!
2G\	-bi	.	.	.	.	.	.
!	!LO:MO:null:mod=-bi	!	!	!	!LO:MO:mod=prop-	!	!
2A\	.	2r	.	2.c/	p(rop)-	1e	-bi
!	!LO:MO:mod=prop-	!	!	!	!	!	!
1AA	p(ro)p-	2A/	prop-	.	.	.	.
!	!	!	!	!	!LO:MO:mod=-ter	!	!
.	.	.	.	4c/	-t(er)	.	.
=21	=21	=21	=21	=21	=21	=21	=21
!	!	!	!LO:MO:mod=-ter	!	!	!	!
.	.	2A/	-t(er)	2c/	ma-	2r	.
!	!LO:MO:mod=-ter	!	!	!	!	!	!
2AA/	-(ter)	2c\	ma-	1A	.	2e\	prop-
*custos:F	*	*	*	*	*	*	*
!	!	!	!LO:MO:mod=-gnam	!	!	!	!LO:MO:mod=-ter
1E	ma-	1B	-gna(m)	.	.	2e\	-t(er)
.	.	.	.	2G/	-gnam	2g\	ma-
!LO:LB:g=original	!	!	!	!	!	!	!
=22	=22	=22	=22	=22	=22	=22	=22
!	!LO:MO:mod=-gnam	!	!	!	!LO:MO:null:mod=glo-	!	!LO:MO:mod=-gnam
2F\	-gna(m)	1A	glo-	2.A/	.	2f\	-gna(m)
!	!LO:MO:mod=glo-	!	!	!	!	!	!LO:MO:mod=glo-
2F\	gl(o-	.	.	.	.	2.f\	gl(o-
.	.	.	.	4B/	.	.	.
!	!LO:MO:mod=-ri-	!	!	!	!LO:MO:null:mod=.	!	!
2C/	-ri)-	2G/	-ri-	1c	glo-	.	.
!	!	!	!	!	!	!	!LO:MO:mod=-ri-
.	.	.	.	.	.	4e\	-ri)-
2C/	-am	2G/	-am	.	.	1e	-am
=23	=23	=23	=23	=23	=23	=23	=23
*	*	*custos:E	*	*	*	*	*
1D	tu-	1F	tu-	2.A/	-ri-	.	.
.	.	.	.	.	.	2d\	tu-
!	!	!	!	!	!LO:MO:mod=-am	!	!
.	.	.	.	4B/	-a(m)	.	.
!	!LO:MO:mod=-am	!LO:LB:g=original	!	!LO:TX:t=P:problem=# above	!	!	!
1AA	-a(m)	0E	-am	1c#X	tu-	0e	-am
=24	=24	=24	=24	=24	=24	=24	=24
!	!	!	!	!	!LO:MO:mod=-am	!	!
2r	.	.	.	2B/	-a(m)	.	.
!	!	!	!	!	!LO:MO:mod=Do-	!	!
2.E\	Do-	.	.	2.B/	D(o-	.	.
.	.	2r	.	.	.	2r	.
!	!	!	!	!	!LO:MO:mod=-mi-	!	!
4E\	-mi-	.	.	4B/	-mi)-	.	.
*	*	*	*	*	*	*custos:f	*
2E\	-ne	2G/	Do-	2B/	-ne	2e\	Do-
!	!	!	!	!	!	!LO:LB:g=original	!
=25	=25	=25	=25	=25	=25	=25	=25
!	!	!	!	!	!LO:MO:mod=De-	!	!
1D	De-	2A/	-mi-	1d	de-	2f\	-mi-
.	.	2A/	-ne	.	.	2f\	-ne
1.C	-us	1c	De-	1e	-us	1g	De-
=26	=26	=26	=26	=26	=26	=26	=26
.	.	2G/	-us	2r	.	2e\	-us
2AA/	rex	2A/	rex	1e	rex	2c/	rex
!	!LO:MO:mod=cae-	!	!LO:MO:mod=cae-	!	!	!	!LO:MO:mod=cae-
2AA/	ce-	2A/	c(ae)-	.	.	2c/	ce-
!	!	!	!	!	!LO:MO:null:mod=cae-	!	!
2D/	-leſ-	2F/	-leſ-	4A/	.	2d\	-leſ-
!	!	!	!	!	!LO:MO:null:mod=.	!	!
.	.	.	.	4B/	c(ae)-	.	.
=27	=27	=27	=27	=27	=27	=27	=27
2C/	-tis	2E/	-tis	4c\	.	2e\	-tis
.	.	.	.	4d\	.	.	.
*	*	*	*	*custos:d	*	*	*
!	!	!	!	!	!LO:MO:mod=-le-	!	!
2C/	De-	2E/	De-	2e\	-lee-	2c/	De-
!	!	!	!	!LO:LB:g=original	!	!	!
2D/	-us	2F/	-us	2d\	-ſtis	2.A/	-us
!	!LO:MO:mod=pa-	!	!LO:MO:mod=pa-	!	!	!	!
2D/	p(a-	2F/	p(a-	2d\	de-	.	.
.	.	.	.	.	.	4B/	.
=28	=28	=28	=28	=28	=28	=28	=28
!	!LO:MO:mod=-ter	!	!LO:MO:mod=-ter	!	!	!	!
2AA/	-te)r	2E/	-te)r	2e\	-us	1c	pa-
*custos:E	*	*	*	*	*	*	*
!	!	!	!	!	!LO:MO:mod=pa-	!	!
2AA/	o-	2A/	Om-	2e\	p(a-	.	.
!LO:LB:g=original	!	!	!	!	!LO:MO:mod=-ter	!	!
2.E\	-mni-	2G/	-ni-	1e	-te)r	2.B/	-ter
.	.	2G/	-po-	.	.	.	.
4E\	-po-	.	.	.	.	4c/	.
=29	=29	=29	=29	=29	=29	=29	=29
!	!LO:MO:mod=-tens	!	!	!	!	!	!LO:MO:mod=om-
2D/	-te(n)s	2F/	-tens	2A/	om-	2d\	Om-
*	*	*custos:F	*	*	*	*	*
*	*ij	*	*ij	*	*	*	*
!	!LO:MO:mod=om-	!	!	!	!	!	!
2C/	o-	2E/	om-	1c	-ni-	1e	-ni-
!	!LO:MO:mod=-ni-	!LO:LB:g=original	!	!	!	!	!
1.D	-mni-	1.F	-ni-	.	.	.	.
!	!	!	!	!	!	!	!LO:MO:null:mod=-po-
.	.	.	.	2B/	-po-	4d\	.
!	!	!	!	!	!	!	!LO:MO:null:mod=.
.	.	.	.	.	.	4c\	-po-
=30	=30	=30	=30	=30	=30	=30	=30
!	!	!	!	!	!LO:MO:mod=-tens	!	!
.	.	.	.	1A	-te(n)s	1d	.
2D/	-po-	2F/	-po-	.	.	.	.
*	*	*	*	*	*	*custos:e	*
!	!LO:MO:mod=-tens	!	!	!	!	!	!
1AA	-te(n)s	2E/	-tens	2.c/	Do-	1e	-tens
*	*Xij	*	*Xij	*	*	*	*
.	.	2.c\	Do -	.	.	.	.
.	.	.	.	4c/	-mi-	.	.
!	!	!	!	!	!	!LO:LB:g=original	!
=31	=31	=31	=31	=31	=31	=31	=31
2.AA/	Do-	.	.	4A/	 ne	2r	.
.	.	4c\	-mi-	4B/	.	.	.
.	.	2c\	-ne	4c\	.	2.e\	Do-
4AA/	-mi-	.	.	4d\	.	.	.
!	!	!	!LO:MO:mod=Fi-	!	!LO:MO:mod=Fi-	!	!
1E	-ne	1B	fi-	2e\	fi-	.	.
.	.	.	.	.	.	4e\	-mi-
.	.	.	.	2B/	-li	2e\	-ne
=32	=32	=32	=32	=32	=32	=32	=32
!	!LO:MO:mod=Fi-	!	!	!	!	!	!LO:MO:mod=Fi-
2F\	fi-	2A/	-li	1r	.	2c/	fi-
!	!	!	!LO:MO:mod=u-	!	!	!	!
2C/	-li	2c\	v-	.	.	2e\	-li
!	!LO:MO:mod=u-	!	!	!	!	!	!LO:MO:mod=u-
2AA/	V-	2c\	-ni-	2r	.	2c/	V-
!	!	!	!	!	!LO:MO:mod=u-	!	!
2BB/	-ni-	2B\	-ge-	2d\	v-	2d\	-ni-
=33	=33	=33	=33	=33	=33	=33	=33
2C/	-ge-	1A	-ni-	2c/	-ni-	2e\	-ge-
2C/	-ni-	.	.	2A/	-ge-	2f\	-ni-
1GG	-te	1G	-te	1B	-ni-	1d	-te
=34	=34	=34	=34	=34	=34	=34	=34
!	!	!	!LO:MO:mod=Je-	!	!	!	!
0AA	Je-	0c	Ie-	1A	-te	2.c/	Je-
.	.	.	.	.	.	4d\	.
.	.	.	.	1A	Je-	2e\	.
.	.	.	.	.	.	2f\	-ſu
=35	=35	=35	=35	=35	=35	=35	=35
*	*	*	*	*custos:c	*	*	*
!	!	!	!	!	!	!	!LO:MO:mod=Chri-
1GG	-ſu	1B	-ſu	1d	-ſu	1.g	Chr(i-
*custos:E	*	*	*	*	*	*	*
!	!	!	!LO:MO:mod=Chri-	!LO:LB:g=original	!LO:MO:mod=Chri-	!	!
0AA	Chri-	0A	Chr(i-	0c	Chr(i-	.	.
!	!	!	!	!	!	!	!LO:MO:mod=-ste
.	.	.	.	.	.	2f\	-st)e
!LO:LB:g=original	!	!	!	!	!	!	!
=36	=36	=36	=36	=36	=36	=36	=36
.	.	.	.	.	.	0e	.
!	!	!	!LO:MO:mod=-ste	!	!LO:MO:mod=-ste	!	!
1E	-ſte	1G	-ſt)e	2B/	-st)e	.	.
!	!	!	!	!	!LO:MO:mod=et	!	!
.	.	.	.	2B/	e(t)	.	.
=37	=37	=37	=37	=37	=37	=37	=37
!	!	!	!LO:MO:mod=et	!	!	!	!LO:MO:mod=et
1r	.	1G	e(t)	1B	ſan-	2d\	e(t)
!	!	!	!	!	!	!	!LO:MO:mod=san-
.	.	.	.	.	.	1e	ſ(an)-
*	*	*custos:A	*	*	*	*	*
2r	.	1A	ſan-	2c/	.	.	.
*	*	*	*	*	*	*custos:e	*
!	!LO:MO:mod=et	!	!	!	!	!	!
2F\	e(t)	.	.	2A/	-cte	2c/	-cte
!	!	!LO:LB:g=original	!	!	!	!LO:LB:g=original	!
=38	=38	=38	=38	=38	=38	=38	=38
!	!LO:MO:mod=san-	!	!	!	!	!	!
2E\	ſ(an)-	1G	-cte	2B/	ſpi-	1e	.
2C/	-cte	.	.	2c/	-ri-	.	.
!	!LO:MO:mod=Spi-	!	!	!	!	!	!
1.D	Sp(i-	1.F	Spi-	2A/	-tus	2.f\	Spi-
*	*	*	*	*	*ij	*	*
!	!	!	!	!	!LO:MO:mod=Spi-	!	!
.	.	.	.	1d	ſpi-	.	.
.	.	.	.	.	.	4e\	.
=39	=39	=39	=39	=39	=39	=39	=39
.	.	.	.	.	.	2d\	-ri-
!	!	!	!	!LO:TX:t=P:problem=# below	!	!	!
2AA/	-ri-	2E/	-ri-	2c#X/	-ri-	2e\	.
!LO:N:vis=0	!LO:MO:mod=-tus	!LO:N:vis=0	!LO:MO:mod=-tus	!LO:N:vis=0	!	!LO:N:vis=0	!
1AA;	-t)us	1E;	-tus.	1c#;	-tus	1e;<	-tus
*	*	*	*	*	*Xij	*	*
=40||	=40||	=40||	=40||	=40||	=40||	=40||	=40||
1.D	Do-	1.A	Do-	1.d	Do-	1.f	Do
2D/	-mi-	2A/	-mi-	2d\	-mi-	2f\	mi-
=41	=41	=41	=41	=41	=41	=41	=41
2E\	-ne	2G/	-ne	2B/	-ne	2e\	-ne
*	*	*	*	*custos:c	*	*	*
2E\	De-	2G/	De-	2B/	De-	2e\	De-
!	!	!	!	!LO:LB:g=original	!	!	!
2AA/	-us	2A/	-us	2c/	-us	2e\	-us
!	!LO:MO:mod=A-	!	!LO:MO:mod=A-	!	!LO:MO:mod=A-	!	!LO:MO:mod=A-
1E	a-	1G	a-	1B	a-	1e	a-
=42	=42	=42	=42	=42	=42	=42	=42
.	.	.	.	.	.	.	.
*custos:C	*	*	*	*	*	*	*
!	!LO:MO:mod=-gnus	!	!	!	!	!	!
2E\	-gnus.	2B\	-gnus	2e\	-gnus	2g\	-gnus
*lig	*	*	*	*	*	*	*
!LO:LB:g=original	!	!	!	!	!	!	!
1C	De-	1c	De-	1e	de-	1g	De-
=43	=43	=43	=43	=43	=43	=43	=43
1D	.	1A	-i	2d\	-i	2f\	-i
!	!	!	!	!	!LO:MO:mod=Fi-	!	!LO:MO:mod=Fi-
.	.	.	.	2d\	fi-	2f\	fi-
*	*	*	*	*	*	*custos:e	*
*Xlig	*	*lig	*	*	*	*	*
!	!	!	!LO:MO:mod=Fi-	!	!	!	!
4AA/	.	1A	fi-	2c/	-li-	2e\	-li-
4BB/	.	.	.	.	.	.	.
!	!	!	!	!	!	!LO:LB:g=original	!
4C/	.	.	.	2c/	-us	2e\	-us
4D/	.	.	.	.	.	.	.
=44	=44	=44	=44	=44	=44	=44	=44
*	*	*custos:A	*	*	*	*	*
!	!	!LO:TX:t=P:problem=# above	!	!	!LO:MO:mod=Pa-	!	!LO:MO:mod=Pa-
1E	-i	1G#X	.	1B	p(at)-	2.e\	pa-
.	.	.	.	.	.	4d\	.
!	!	!LO:LB:g=original	!	!	!	!	!
*	*	*Xlig	*	*	*	*	*
!	!LO:MO:mod=Fi-	!	!	!	!LO:MO:null:mod=.	!	!
2AA/	fi-	2A/	.	2c/	-ris	4e\	.
.	.	.	.	.	.	4f\	.
2GG/	-li-	2.B\	.	2d\	.	2g\	.
=45	=45	=45	=45	=45	=45	=45	=45
1AA	-us	.	.	1c	.	2e\	-tris
.	.	4A/	-li-	.	.	.	.
*	*	*	*	*	*	*	*ij
!	!	!	!	!	!	!	!LO:MO:mod=Fi-
.	.	1A	-us	.	.	2e\	fi-
!	!LO:MO:mod=Pa-	!	!	!	!	!	!
1E	p(at)-	.	.	1B	.	2e\	-li-
!	!	!	!LO:MO:mod=Pa-	!	!	!	!
.	.	2G/	p(at)-	.	.	1e	-us
=46	=46	=46	=46	=46	=46	=46	=46
!	!LO:MO:mod=-tris	!	!LO:MO:mod=-tris	!	!	!	!
1AA	-ris	1A	-ris	2c/	.	.	.
!	!	!	!	!	!	!	!LO:MO:mod=Pa-
.	.	.	.	1A	.	4d/	pa-
.	.	.	.	.	.	4c/	.
1r	.	1r	.	.	.	1B	.
.	.	.	.	4G/	.	.	.
.	.	.	.	4F/	.	.	.
=47	=47	=47	=47	=47	=47	=47	=47
!	!	!	!	!	!LO:MO:null:mod=-tris	!	!
2r	.	1.E	Qui	1G	.	1B	-tris
1E	Qui	.	.	.	.	.	.
.	.	.	.	2r	.	1r	.
!	!	!	!	!	!LO:MO:mod=Qui	!	!
4D/	.	2F/	.	2A/	qui	.	.
4C/	.	.	.	.	.	.	.
*	*	*	*	*	*	*	*Xij
=48	=48	=48	=48	=48	=48	=48	=48
2BB/	.	2G/	.	2B/	tol-	2r	.
2AA/	.	1A	.	2c/	-liſ	2c/	Qui
1BB	tol-	.	.	1r	.	1d	tol-
.	.	2G/	tol-	.	.	.	.
=49	=49	=49	=49	=49	=49	=49	=49
1AA	-lis	1A	-lis	2r	.	2c/	-lis
*	*	*	*	*custos:B	*	*	*
.	.	.	.	2A/	pec-	2c/	pec-
!	!	!	!	!LO:LB:g=original	!	!	!
1r	.	1r	.	2B,/	-ca-	2d\	-ca-
.	.	.	.	2c/	-ta	2e\	-ta
=50	=50	=50	=50	=50	=50	=50	=50
*	*	*	*	*	*	*custos:e	*
!	!	!	!	!	!LO:MO:mod=mun-	!	!
1r	.	1r	.	1d	m(un)-	1f	mun-
!	!	!	!	!	!	!LO:LB:g=original	!
2r	.	2r	.	2c/	-di	2e\	-di
1D	mi-	1A	mi-	1d	mi-	1f	mi-
=51	=51	=51	=51	=51	=51	=51	=51
.	.	.	.	.	.	.	.
2GG/	-ſe-	2B\	-ſe-	2d\	-ſe-	2g\	-ſe-
1C	-re-	2.c\	-re-	1G	-re-	1e	-re-
.	.	4B\	.	.	.	.	.
=52	=52	=52	=52	=52	=52	=52	=52
2D/	-re	2A/	.	2d\	-re	2f\	-re
*custos:D	*	*custos:A	*	*	*	*	*
2E\	.	2G/	-re	4B/	.	1g	no-
!	!	!	!	!	!LO:MO:null:mod=.	!	!
.	.	.	.	4c/	no-	.	.
!LO:LB:g=original	!	!LO:LB:g=original	!	!	!LO:MO:mod=no-	!	!
1D	no-	1A	no-	1d	-bis	.	.
.	.	.	.	.	.	2f\	.
=53	=53	=53	=53	=53	=53	=53	=53
!	!	!	!	!	!LO:MO:null:mod=-bis	!	!
2GG/	-bis	2G/	-bis	2B/	.	1g	-bis
!	!LO:MO:mod=Qui	!	!LO:MO:mod=Qui	!	!	!	!
1C	q(ui)	1G	Q(ui)	2G/	Qui	.	.
!	!	!	!	!	!LO:MO:mod=tol-	!	!
.	.	.	.	2.c/	to-	2r	.
!	!	!	!	!	!	!	!LO:MO:mod=Qui
2C/	tol-	2G/	tol-	.	.	1e	(Qui)
.	.	.	.	4B/	.	.	.
=54	=54	=54	=54	=54	=54	=54	=54
!	!LO:MO:mod=-lis	!	!LO:MO:mod=-lis	!	!	!	!
2C/	-l(is)	2A/	-l(is)	4c\	.	.	.
!	!	!	!	!	!LO:MO:null:mod=.	!	!
.	.	.	.	4d\	-llis	.	.
!	!LO:MO:mod=pec-	!	!LO:MO:mod=pec-	!	!LO:MO:null:mod=-lis	!	!
2C/	p(ec)-	2G/	p(ec)-	2e\	.	2e\	tol-
!	!LO:MO:mod=-ca-	!	!LO:MO:mod=-ca-	!	!LO:MO:mod=pec-	!	!
2D/	-c(a)-	2F/	-c(a)-	2d\	p(ec)-	2f\	-lis
!	!	!	!	!	!LO:MO:mod=-ca-	!	!LO:MO:mod=pec-
2GG/	-ta	2G/	-ta	4B/	-c(a)-	2d\	p(e)c-
.	.	.	.	4c/	-ta	.	.
=55	=55	=55	=55	=55	=55	=55	=55
!	!LO:MO:mod=mun-	!	!LO:MO:mod=mun-	!	!	!	!LO:MO:mod=-ca-
1D	m(un)-	1A	m(un)-	2d\	.	2d\	-(ca)-
!	!	!	!	!	!LO:MO:mod=mun-	!	!
.	.	.	.	2A/	m(un)-	2d\	-ta
!	!	!	!	!	!	!	!LO:MO:mod=mun-
1GG	-di	1G	-di	1B	-di	1d	m(un)-
=56	=56	=56	=56	=56	=56	=56	=56
!	!LO:MO:mod=Su-	!	!	!	!LO:MO:mod=Su-	!	!
1.C	ſu-	1.G	Su-	1.c	ſu-	1e	-di
.	.	.	.	.	.	1.e	Su-
*	*	*	*	*custos:c	*	*	*
2C/	-ſci-	2A/	-ſci-	2c/	-ſci-	.	.
!	!	!	!	!LO:LB:g=original	!	!	!
=57	=57	=57	=57	=57	=57	=57	=57
1AA	-pe	2E/	-pe	2c/	-pe	.	.
.	.	1A	de-	2c/	de-	2e\	-ſci-
1r	.	.	.	1B	-pre-	1e	-pe
!	!	!	!LO:MO:mod=-pre-	!	!	!	!
.	.	2G/	-p(re)-	.	.	.	.
=58	=58	=58	=58	=58	=58	=58	=58
2r	.	2A/	-ca-	1d	-ca-	2f\	de-
*	*	*	*	*	*	*custos:e	*
2GG/	de-	2B\	-ti-	.	.	2d\	-pre-
!	!	!	!	!	!	!LO:LB:g=original	!
2C/	-pre-	0c	-o-	2G/	-ti-	2.e\	-ca-
1AA	-ca-	.	.	2.A/	-o-	.	.
.	.	.	.	.	.	4d\	.
=59	=59	=59	=59	=59	=59	=59	=59
.	.	.	.	.	.	4c\	-ti-
!	!	!	!	!	!	!	!LO:MO:null:mod=.
.	.	.	.	4B/	.	4d\	-o-
!	!	!	!	!	!LO:MO:null:mod=.	!	!LO:MO:mod=-o-
2AA/	-ti-	.	.	2c/	-nem	2e\	-ne(m)
!	!	!	!	!	!LO:MO:null:mod=-nem	!	!LO:MO:null:mod=-nem
2BB/	-o-	1B	-nem	2d/	.	2d\	.
!	!LO:MO:mod=-nem	!	!	!	!	!	!LO:MO:mod=nos-
2GG/	-(ne)m	.	.	4B/	.	2d\	n(os-
.	.	.	.	4c/	.	.	.
=60	=60	=60	=60	=60	=60	=60	=60
*	*	*custos:G	*	*	*	*	*
!	!LO:MO:mod=nos-	!	!LO:MO:mod=nos-	!	!	!	!LO:MO:mod=-tram
1D	n(ost)-	1A	no-	2d\	noſ-	1d	-t)ram
.	.	.	.	2A/	.	.	.
*custos:D	*	*	*	*	*	*	*
!	!LO:MO:mod=-tram	!LO:LB:g=original	!LO:MO:mod=-tram	!	!LO:MO:mod=-tram	!	!
0.GG	-ram	0.G	-ſtra(m)	1B	-tra(m)	2r	.
.	.	.	.	.	.	2d\	Qui
!LO:LB:g=original	!	!	!	!	!	!	!
=61	=61	=61	=61	=61	=61	=61	=61
.	.	.	.	2r	.	1d	ſe-
.	.	.	.	2B/	Qui	.	.
.	.	.	.	1B	ſe-	2d\	-des
.	.	.	.	.	.	2d\	ad
=62	=62	=62	=62	=62	=62	=62	=62
1r	.	1A	Tu	2A/	-des	2c/	dex-
.	.	.	.	1c	ad	1e	-te-
2r	.	1A	ad	.	.	.	.
!	!	!	!	!	!LO:MO:null:mod=dex-	!	!
1D	Qui	.	.	2d\	.	2.f\	-ram
=63	=63	=63	=63	=63	=63	=63	=63
!	!	!	!	!	!LO:MO:mod=-te-	!	!
.	.	1.A	dex-	2d\	dex-	.	.
.	.	.	.	.	.	4e\	.
!	!	!	!	!	!LO:MO:mod=-ram	!	!LO:MO:null:mod=.
2D/	ſe-	.	.	4A/	-te-	2d\	pa-
!	!	!	!	!	!LO:MO:null:mod=.	!	!
.	.	.	.	4B/	-ra(m)	.	.
!	!	!	!	!	!LO:MO:null:mod=Pa-	!	!LO:MO:null:mod=Pa-
2C/	-des	.	.	4c/	.	2e\	.
.	.	.	.	4B/	.	.	.
!	!	!	!	!	!LO:MO:null:mod=.	!	!LO:MO:null:mod=.
1D	ad	2A/	-te-	4A/	pa-	2f\	-tris
*	*	*	*	*custos:F	*	*	*
.	.	.	.	4G/	.	.	.
!	!	!	!	!LO:LB:g=original	!	!	!
=64	=64	=64	=64	=64	=64	=64	=64
!	!	!	!LO:MO:mod=-ram	!	!	!	!LO:MO:null:mod=-tris
.	.	1A	-ra(m)	2F/	-tris	1d	.
*	*	*	*	*	*ij	*	*
2D/	dex-	.	.	2f\	ad	.	.
2.E\	-te-	1G	De-	2e\	dex-	2r	.
*	*	*	*	*	*	*custos:g	*
*	*	*	*	*	*	*	*ij
.	.	.	.	2e\	-te-	2g\	Qui
!	!LO:MO:null:mod=.	!	!	!	!	!	!
4F\	-ra(m)	.	.	.	.	.	.
!	!	!	!	!	!	!LO:LB:g=original	!
=65	=65	=65	=65	=65	=65	=65	=65
!	!LO:MO:null:mod=-ram	!	!	!	!LO:MO:mod=-ram	!	!
1G	.	1B	-i	2d\	-ra(m)	2g\	ſe-
!	!	!	!	!	!LO:MO:mod=Pa-	!	!
.	.	.	.	2d\	pa-	2g\	-des
!	!LO:MO:mod=Pa-	!	!	!	!	!	!
0C	p(at)-	0c	ſe-	0e	-tris	2e\	ad
!	!	!	!	!	!	!	!
.	.	.	.	.	.	2.g\	dex-
*	*	*	*	*	*Xij	*	*
=66	=66	=66	=66	=66	=66	=66	=66
.	.	.	.	.	.	.	.
.	.	.	.	.	.	4f\	.
.	.	.	.	.	.	2e\	-te-
!	!LO:MO:mod=-tris	!	!	!	!	!	!
0D	-ris	1A	-des	1r	.	1d	-ram
=67	=67	=67	=67	=67	=67	=67	=67
!	!	!	!	!	!	!	!LO:MO:mod=Pa-
.	.	1A	in	2r	.	1d	pa-
.	.	.	.	1d	mi-	.	.
*	*	*lig	*	*	*	*	*
!	!	!	!LO:MO:mod=dex-	!	!	!	!
2r	.	1A	glo-	.	.	1e	-tris
2AA/	mi-	.	.	2c/	-ſe-	.	.
*	*	*	*	*	*	*	*Xij
=68	=68	=68	=68	=68	=68	=68	=68
2BB/	-ſe-	1G	.	2d\	-re-	1r	.
!	!LO:MO:null:mod=.	!	!	!	!	!	!
2C/	-re-	.	.	1e	-re	.	.
*	*	*Xlig	*	*	*	*	*
!	!LO:MO:mod=-re-	!	!LO:MO:mod=-te-	!	!	!	!
1AA	-re	1A	-ri-	.	.	1a	mi-
.	.	.	.	4d\	.	.	.
.	.	.	.	4c/	.	.	.
=69	=69	=69	=69	=69	=69	=69	=69
!	!LO:MO:null:mod=-re	!	!LO:MO:mod=-ram	!	!	!	!
2GG/	.	1B	-a	2B/	.	2d\	-ſe-
2.G\	no-	.	.	4G/	.	1g	-re-
.	.	.	.	4A/	.	.	.
!	!	!	!LO:MO:mod=Pa-	!	!	!	!
.	.	0G	p(at)-	4B/	.	.	.
4F\	.	.	.	4c/	.	.	.
4E\	.	.	.	1d	no-	2g\	-re
4D/	.	.	.	.	.	.	.
=70	=70	=70	=70	=70	=70	=70	=70
*custos:D	*	*	*	*	*	*	*
1E	.	.	.	.	.	1g	no-
!	!	!	!	!	!LO:MO:null:mod=.	!	!
.	.	.	.	2c/	-bis	.	.
!LO:LB:g=original	!	!	!LO:MO:mod=-tris	!	!LO:MO:null:mod=-bis	!	!
2D/	-bis	2A/	-ris	2d\	.	2f\	-bis
!	!LO:MO:mod=Quo-	!	!	!	!	!	!LO:MO:mod=Quo-
1C	Q(uo-	1c	Quo-	1G	Quo-	1e	Q(uo
=71	=71	=71	=71	=71	=71	=71	=71
.	.	.	.	.	.	.	.
*	*	*custos:c	*	*	*	*	*
2C/	-ni-	2c\	-ni-	2G/	-ni-	2e\	ni-
*	*	*	*	*custos:B	*	*	*
!	!LO:MO:mod=-am	!LO:LB:g=original	!	!	!	!	!LO:MO:mod=-am
2AA/	-a)m	2c\	-am	1A	-am	2e\	-a)m
2AA/	tu	2c\	tu	.	.	2a\	tu
!	!	!	!	!LO:LB:g=original	!	!	!
=72	=72	=72	=72	=72	=72	=72	=72
2E\	ſo-	2B\	ſo-	2B/	tu	2g\	ſo-
*	*	*	*	*	*	*custos:e	*
2AA/	-lus	2A/	-lus	4c\	ſo-	2e\	-lus
!	!	!	!	!	!LO:MO:null:mod=.	!	!
.	.	.	.	4d\	-lus	.	.
!	!LO:MO:mod=San-	!	!LO:MO:mod=San-	!	!LO:MO:null:mod=-lus	!LO:LB:g=original	!LO:MO:mod=San-
1E	ſ(an)-	1B	ſ(an)-	2e\	.	1e	ſ(an)-
!	!	!	!	!	!LO:MO:mod=San-	!	!
.	.	.	.	2B/	ſ(an)-	.	.
=73	=73	=73	=73	=73	=73	=73	=73
!	!LO:MO:mod=-ctus	!	!LO:MO:mod=-ctus	!	!LO:MO:mod=-ctus	!	!LO:MO:mod=-ctus
2AA/	-ct(u)s	2A/	-ct(u)s	2c/	-ct(u)s	2e\	-ct(u)s
2AA/	tu	2c\	Tu	2A/	tu	2c/	tu
2GG/	ſo-	2B/	ſo-	2d\	ſo-	2d\	ſo-
2D/	-lus	2A/	-lus	2d\	-lus	2f\	-lus
=74	=74	=74	=74	=74	=74	=74	=74
!	!LO:MO:mod=Do-	!	!	!	!LO:MO:mod=Do-	!	!LO:MO:mod=Do-
2.GG/	D(o-	2B\	Do-	2.d\	D(o-	2.g\	d(o-
.	.	2B\	-mi-	.	.	.	.
!	!LO:MO:mod=-mi-	!	!	!	!LO:MO:mod=-mi-	!	!LO:MO:mod=-mi-
4GG/	-mi)-	.	.	4d\	-mi)-	4g\	-mi)-
!	!LO:MO:mod=-nus	!	!LO:MO:mod=-nus	!	!LO:MO:mod=-nus	!	!LO:MO:mod=-nus
2D/	-n(u)s	2A/	-(nus)	2d\	-n(u)s	2f\	-n(u)s
!	!	!	!LO:MO:mod=tu	!	!	!	!
1AA	tu	1c	Tu	1e	tu	1a	tu
=75	=75	=75	=75	=75	=75	=75	=75
.	.	.	.	.	.	.	.
2AA/	ſo-	2c\	ſo-	2e\	ſo-	2a\	ſo-
2E,\	-lus	2B\	-lus	2e\	-lus	2g\	-lus
2F\	al-	2A/	al-	2A/	al-	2d\	al-
=76	=76	=76	=76	=76	=76	=76	=76
1E	-tiſ-	2.B\	-tiſ-	2e\	-tiſ-	2e\	-tiſ-
.	.	.	.	2B/	-si-	2e\	-si-
.	.	4B\	-si-	.	.	.	.
*	*	*custos:A	*	*	*	*	*
!	!	!	!	!LO:TX:t=P:problem=# above	!LO:MO:mod=-mus	!	!LO:MO:mod=-mus
2AA/	-si-	1A	-mus	1c#X	-m(us)	1e	-(mus)
*custos:D	*	*	*	*	*	*	*
2AA/	-mus	.	.	.	.	.	.
!LO:LB:g=original	!	!LO:LB:g=original	!	!	!	!	!
=77	=77	=77	=77	=77	=77	=77	=77
!	!LO:MO:mod=Je-	!	!	!	!	!LO:SIC:v:s=1d	!LO:MO:mod=Je-
1.D	Ie-	1A	Tu	2.d\	Je-	1e	Ie-
.	.	.	.	4e\	.	.	.
.	.	1A	rex	2f\	.	2d\	-ſu
2C/	-ſu	.	.	1e	-ſu	2e\	.
=78	=78	=78	=78	=78	=78	=78	=78
*	*	*lig	*	*	*	*lig	*
!	!LO:MO:mod=Chri-	!	!	!	!	!	!LO:MO:mod=Chri-
1F	Chr(i-	1A	glo-	.	.	1f	Chr(i-
*	*	*	*	*custos:e	*	*	*
!	!	!	!	!	!LO:MO:mod=Chri-	!	!
.	.	.	.	2d\	(Ch)ri-	.	.
!	!LO:MO:mod=-ste	!	!	!LO:LB:g=original	!	!	!
1E	-st)e	1G	.	1e	-ſte	1g	.
*	*ij	*Xlig	*	*	*ij	*Xlig	*
=79	=79	=79	=79	=79	=79	=79	=79
!	!	!	!	!	!	!	!LO:MO:mod=-ste
2r	.	1A	-ri-	2r	.	1e	-st)e
!	!LO:MO:mod=Je-	!	!	!	!	!	!
2A\	Ie-	.	.	1e	Je-	.	.
!	!	!	!LO:MO:mod=-ae	!	!	!	!
2E\	-ſu	1B	-(ae)	.	.	2r	.
*	*	*	*	*	*	*custos:g	*
*	*	*	*	*	*	*	*ij
!	!LO:MO:mod=Chri-	!	!	!	!	!	!LO:MO:mod=Je-
2.G\	Chr(i-	.	.	4d/	-ſu	2g\	Ie-
.	.	.	.	4c/	.	.	.
!	!	!	!	!	!	!LO:LB:g=original	!
=80	=80	=80	=80	=80	=80	=80	=80
.	.	0G	Chri-	4B/	.	1g	-ſu
4F\	.	.	.	4c/	.	.	.
!	!	!	!	!	!LO:MO:mod=Chri-	!	!
4E\	.	.	.	1d	(Ch)ri-	.	.
4D/	.	.	.	.	.	.	.
!	!	!	!	!	!	!	!LO:MO:mod=Chri-
1E	.	.	.	.	.	1e	Chr(i-
.	.	.	.	2c/	.	.	.
=81||	=81||	=81||	=81||	=81||	=81||	=81||	=81||
*M3/1	*	*M3/1	*	*M3/1	*	*M3/1	*
*met(3)	*	*met(3)	*	*met(3)	*	*met(3)	*
!	!LO:MO:mod=-ste	!	!	!	!	!	!LO:MO:mod=-ste
0.D	-st)e	0.A	-ſte	0.d	-ſte	0.f,	-st)e
*	*Xij	*	*	*	*Xij	*	*Xij
=82	=82	=82	=82	=82	=82	=82	=82
!	!LO:MO:mod=Cum	!	!	!	!LO:MO:mod=Cum	!	!
0.D	Cu(m)	0.F	Cum	0.d	Cu(m)	1.f	Cum
.	.	.	.	.	.	2e\	.
.	.	.	.	.	.	2f\	.
.	.	.	.	.	.	2g,\	.
=83	=83	=83	=83	=83	=83	=83	=83
*lig	*	*lig	*	*lig	*	*	*
!	!	!	!	!	!LO:MO:mod=san-	!	!LO:MO:mod=san-
1D	ſan-	1F	ſan-	1d	ſ(an)-	1.a	s(an)c-
!	!	!	!	!LO:TX:t=P:problem=# above	!	!	!
1AA	.	1E	.	1c#X	.	.	.
!	!	!	!	!	!	!	!LO:MO:null:mod=.
.	.	.	.	.	.	2g\	-to
*Xlig	*	*Xlig	*	*Xlig	*	*	*
!	!	!	!	!	!	!	!LO:MO:null:mod=-cto
1D	-cto	1D	-cto	1d	-cto	1f,	.
=84	=84	=84	=84	=84	=84	=84	=84
!	!LO:MO:mod=Spi-	!	!LO:MO:mod=Spi-	!	!LO:MO:mod=Spi-	!	!LO:MO:mod=Spi-
0BB-	ſpi-	0F	ſp(i-	0d	ſp(i-	1f	Sp(i-
.	.	.	.	.	.	1d	-ri-
!	!	!	!	!	!	!	!LO:MO:mod=-tu
1C	-ri-	1E	-ri-	1c	-ri-	1e,	-t)u
=85	=85	=85	=85	=85	=85	=85	=85
*	*	*custos:E	*	*	*	*	*
!	!	!	!LO:MO:mod=-tu	!	!LO:MO:mod=-tu	!	!
0GG	-tu	0D	-t)u	0B	-t)u	1r	.
.	.	.	.	.	.	1g	in
*custos:C	*	*	*	*	*	*	*
!	!	!LO:LB:g=original	!	!	!	!	!
1D	in	1r	.	1d	in	1f,	glo-
!LO:LB:g=original	!	!	!	!	!	!	!
=86	=86	=86	=86	=86	=86	=86	=86
1C	glo-	1E	in	1e	glo-	1e	-ri-
1D	-ri-	1F	glo-	1d	-ri-	1a	-a
*	*	*	*	*custos:c	*	*custos:g	*
1GG	-a	1G	-ri-	1d	-a	1g,	De-
!	!	!	!	!LO:LB:g=original	!	!LO:LB:g=original	!
=87	=87	=87	=87	=87	=87	=87	=87
1.C	De-	0G	-a	1.c	De-	2g\	-i
.	.	.	.	.	.	2f\	.
.	.	.	.	.	.	2e\	.
2BB/	.	.	.	2d\	.	2d\	.
1.AA	-i	1A	De-	1.e	-i	1.c	pa-
=88	=88	=88	=88	=88	=88	=88	=88
.	.	1.A	-i	.	.	.	.
2BB/	.	.	.	2d\	.	2d\	.
1C	.	.	.	2c/	.	1e	.
.	.	2G/	.	2B/	.	.	.
!	!LO:MO:mod=pa-	!	!LO:MO:mod=pa-	!	!	!	!LO:MO:null:mod=.
1FF	pat-	1F	p(at)-	1c	.	1f,	-tris
=89	=89	=89	=89	=89	=89	=89	=89
!	!LO:MO:mod=-tris	!	!LO:MO:mod=-tris	!	!	!	!LO:MO:null:mod=-tris
1C	-ris	1G	-ris	1c	pa-	0e	.
*	*	*col	*	*	*	*	*
!	!	!	!	!	!LO:MO:null:mod=.	!	!
0D	A-	0F	A-	0A	-tris	.	.
.	.	.	.	.	.	1d,	A-
*	*	*Xcol	*	*	*	*	*
=90	=90	=90	=90	=90	=90	=90	=90
!	!	!LO:SIC:s=[0.E	!	!	!LO:MO:null:mod=-tris	!LO:SIC:s=[0.e	!
0AA	-men	[0.E;l	-men	0.A	.	[0.e;<l	-men
*	*ij	*	*	*	*	*	*
1AA	De-	.	.	.	.	.	.
=91	=91	=91	=91	=91	=91	=91	=91
1GG	-i	0.E_	.	1r	.	0.e_	.
0AA	pa-	.	.	1c	De-	.	.
.	.	.	.	1c	-i	.	.
=92	=92	=92	=92	=92	=92	=92	=92
!	!	!	!	!	!LO:MO:mod=pa-	!	!
1E	-tris	0.E_	.	1B	p(at)-	0.e_	.
!	!	!	!	!	!LO:MO:mod=-tris	!	!
0AA	A-	.	.	1A	-ris	.	.
.	.	.	.	1c	A-	.	.
=93	=93	=93	=93	=93	=93	=93	=93
!	!	!LO:SIC:s=0.E];	!	!	!	!LO:SIC:s=0.e];	!
0.E;	-men	0.E]	.	0.B;	-men	0.e]	.
*	*Xij	*	*	*	*	*	*
==	==	==	==	==	==	==	==
*-	*-	*-	*-	*-	*-	*-	*-
!!!system-decoration: [(*)]
!!!RDF**kern: > = above
!!!RDF**kern: < = below
!!LO:MO:ori
!!!RDF**kern: l = terminal long
!!LO:MO:end
!!!filter-modern: sic -sq | shed -e "s/TX(.*):t=P:/tx$1:t=P:/LG" | shed -e "s/^(\d+[\/\\]right)/$1yy/I;s/^(\d+[\/\\]left)/$1yy/I" | shed -e "s/-//B" | shed -k -e "s/[<>]//g" | shed -k -e "s/LO:N:vis/LO:n:vis:/L" | shed -e "s/^custos:/Xcustos:/I" | shed -k -e "s/LO:N:acc/LO:n:acc:/L" | autostem -r | tie -s  | humtr -p | modori -m
!!!ENC: Mateusz Solarz
!!!END: 2022-02-15
!!!ENC: Natalia Wrzos
!!!END: 2022-02-23
!!!ENC-modern: Andrzej Borzym
!!!END-modern: 2022-07-16
